icons/media/music-note-1-24.svg

<svg width="24" height="24" viewBox="0 0 24 24" fill="none" xmlns="http://www.w3.org/2000/svg">
<path fill-rule="evenodd" clip-rule="evenodd" d="M13.197 2.10517C13.4246 1.97003 13.7065 1.96479 13.9389 2.0914L18.6088 4.63563C18.9725 4.83379 19.1068 5.2893 18.9086 5.65304C18.7104 6.01677 18.2549 6.15099 17.8912 5.95283L14.33 4.01269V17.8888C14.33 20.1706 12.454 22 10.165 22C7.87602 22 6 20.1706 6 17.8888C6 15.6071 7.87602 13.7776 10.165 13.7776C11.1759 13.7776 12.1063 14.1345 12.83 14.7295V2.75C12.83 2.48536 12.9695 2.24032 13.197 2.10517ZM12.83 17.8888C12.83 16.4579 11.6482 15.2776 10.165 15.2776C8.68189 15.2776 7.5 16.4579 7.5 17.8888C7.5 19.3197 8.68189 20.5 10.165 20.5C11.6482 20.5 12.83 19.3197 12.83 17.8888Z" fill="black"/>
</svg>

<svg xmlns="http://www.w3.org/2000/svg" width="24" height="24"><path fill-rule="evenodd" d="M13.197 2.105a.75.75 0 01.742-.014l4.67 2.545a.75.75 0 01-.718 1.317l-3.561-1.94v13.876c0 2.282-1.876 4.111-4.165 4.111S6 20.17 6 17.889c0-2.282 1.876-4.111 4.165-4.111 1.01 0 1.941.356 2.665.951V2.75c0-.265.14-.51.367-.645zM12.83 17.89c0-1.431-1.182-2.611-2.665-2.611S7.5 16.458 7.5 17.888c0 1.432 1.182 2.612 2.665 2.612s2.665-1.18 2.665-2.611z"/></svg>
